section-2/calendar.svg

<svg width="32" height="32" viewBox="0 0 32 32" fill="none" xmlns="http://www.w3.org/2000/svg">
<g opacity="0.8" clip-path="url(#clip0_477_12)">
<path d="M29.8382 31.1351H2.16253C1.81847 31.1351 1.48849 30.9984 1.2452 30.7551C1.00191 30.5119 0.865234 30.1819 0.865234 29.8378V10.6681C0.865234 10.5534 0.910794 10.4434 0.991891 10.3623C1.07299 10.2812 1.18298 10.2357 1.29767 10.2357H30.7031C30.8178 10.2357 30.9277 10.2812 31.0088 10.3623C31.0899 10.4434 31.1355 10.5534 31.1355 10.6681V29.8378C31.1355 30.1819 30.9988 30.5119 30.7555 30.7551C30.5122 30.9984 30.1823 31.1351 29.8382 31.1351ZM1.7301 11.1005V29.8378C1.7301 29.9525 1.77566 30.0625 1.85676 30.1436C1.93785 30.2247 2.04784 30.2703 2.16253 30.2703H29.8382C29.9529 30.2703 30.0629 30.2247 30.144 30.1436C30.2251 30.0625 30.2706 29.9525 30.2706 29.8378V11.1005H1.7301Z" fill="#313131"/>
<path d="M1.29767 11.1006C1.18298 11.1006 1.07299 11.055 0.991891 10.9739C0.910794 10.8928 0.865234 10.7828 0.865234 10.6681V5.1892C0.865234 4.84514 1.00191 4.51517 1.2452 4.27188C1.48849 4.02859 1.81847 3.89191 2.16253 3.89191H6.66848C6.78317 3.89191 6.89316 3.93747 6.97425 4.01856C7.05535 4.09966 7.10091 4.20965 7.10091 4.32434C7.10091 4.43903 7.05535 4.54902 6.97425 4.63012C6.89316 4.71121 6.78317 4.75677 6.66848 4.75677H2.16253C2.04784 4.75677 1.93785 4.80233 1.85676 4.88343C1.77566 4.96453 1.7301 5.07452 1.7301 5.1892V10.6681C1.7301 10.7828 1.68454 10.8928 1.60344 10.9739C1.52235 11.055 1.41236 11.1006 1.29767 11.1006Z" fill="#313131"/>
<path d="M30.7026 11.1006C30.588 11.1006 30.478 11.055 30.3969 10.9739C30.3158 10.8928 30.2702 10.7828 30.2702 10.6681V5.1892C30.2702 5.07452 30.2247 4.96453 30.1436 4.88343C30.0625 4.80233 29.9525 4.75677 29.8378 4.75677H25.3318C25.2172 4.75677 25.1072 4.71121 25.0261 4.63012C24.945 4.54902 24.8994 4.43903 24.8994 4.32434C24.8994 4.20965 24.945 4.09966 25.0261 4.01856C25.1072 3.93747 25.2172 3.89191 25.3318 3.89191H29.8378C30.1818 3.89191 30.5118 4.02859 30.7551 4.27188C30.9984 4.51517 31.1351 4.84514 31.1351 5.1892V10.6681C31.1351 10.7828 31.0895 10.8928 31.0084 10.9739C30.9273 11.055 30.8173 11.1006 30.7026 11.1006Z" fill="#313131"/>
<path d="M22.2358 4.75677H9.76446C9.64978 4.75677 9.53978 4.71121 9.45869 4.63012C9.37759 4.54902 9.33203 4.43903 9.33203 4.32434C9.33203 4.20965 9.37759 4.09966 9.45869 4.01856C9.53978 3.93747 9.64978 3.89191 9.76446 3.89191H22.2358C22.3505 3.89191 22.4605 3.93747 22.5416 4.01856C22.6227 4.09966 22.6682 4.20965 22.6682 4.32434C22.6682 4.43903 22.6227 4.54902 22.5416 4.63012C22.4605 4.71121 22.3505 4.75677 22.2358 4.75677Z" fill="#313131"/>
<path d="M1.29767 11.1006C1.18298 11.1006 1.07299 11.055 0.991891 10.9739C0.910794 10.8928 0.865234 10.7828 0.865234 10.6681V5.1892C0.865234 4.84514 1.00191 4.51517 1.2452 4.27188C1.48849 4.02859 1.81847 3.89191 2.16253 3.89191H6.66848C6.78317 3.89191 6.89316 3.93747 6.97425 4.01856C7.05535 4.09966 7.10091 4.20965 7.10091 4.32434C7.10091 4.43903 7.05535 4.54902 6.97425 4.63012C6.89316 4.71121 6.78317 4.75677 6.66848 4.75677H2.16253C2.04784 4.75677 1.93785 4.80233 1.85676 4.88343C1.77566 4.96453 1.7301 5.07452 1.7301 5.1892V10.6681C1.7301 10.7828 1.68454 10.8928 1.60344 10.9739C1.52235 11.055 1.41236 11.1006 1.29767 11.1006Z" fill="#313131"/>
<path d="M30.7026 11.1006C30.588 11.1006 30.478 11.055 30.3969 10.9739C30.3158 10.8928 30.2702 10.7828 30.2702 10.6681V5.1892C30.2702 5.07452 30.2247 4.96453 30.1436 4.88343C30.0625 4.80233 29.9525 4.75677 29.8378 4.75677H25.3318C25.2172 4.75677 25.1072 4.71121 25.0261 4.63012C24.945 4.54902 24.8994 4.43903 24.8994 4.32434C24.8994 4.20965 24.945 4.09966 25.0261 4.01856C25.1072 3.93747 25.2172 3.89191 25.3318 3.89191H29.8378C30.1818 3.89191 30.5118 4.02859 30.7551 4.27188C30.9984 4.51517 31.1351 4.84514 31.1351 5.1892V10.6681C31.1351 10.7828 31.0895 10.8928 31.0084 10.9739C30.9273 11.055 30.8173 11.1006 30.7026 11.1006Z" fill="#313131"/>
<path d="M22.2358 4.75677H9.76446C9.64978 4.75677 9.53978 4.71121 9.45869 4.63012C9.37759 4.54902 9.33203 4.43903 9.33203 4.32434C9.33203 4.20965 9.37759 4.09966 9.45869 4.01856C9.53978 3.93747 9.64978 3.89191 9.76446 3.89191H22.2358C22.3505 3.89191 22.4605 3.93747 22.5416 4.01856C22.6227 4.09966 22.6682 4.20965 22.6682 4.32434C22.6682 4.43903 22.6227 4.54902 22.5416 4.63012C22.4605 4.71121 22.3505 4.75677 22.2358 4.75677Z" fill="#313131"/>
<path d="M23.7836 7.77857C23.2582 7.778 22.7544 7.56901 22.3829 7.19747C22.0113 6.82593 21.8023 6.32217 21.8018 5.79673V2.85403C21.8018 2.32841 22.0106 1.82433 22.3822 1.45266C22.7539 1.08099 23.258 0.872192 23.7836 0.872192C24.3092 0.872192 24.8133 1.08099 25.185 1.45266C25.5566 1.82433 25.7654 2.32841 25.7654 2.85403V5.79717C25.7647 6.32253 25.5557 6.82618 25.1842 7.19762C24.8126 7.56907 24.309 7.778 23.7836 7.77857ZM23.7836 1.73662C23.4874 1.73697 23.2034 1.85482 22.994 2.06431C22.7846 2.2738 22.6669 2.55782 22.6666 2.85403V5.79717C22.6666 5.94385 22.6955 6.0891 22.7516 6.22461C22.8078 6.36013 22.8901 6.48326 22.9938 6.58698C23.0975 6.69071 23.2206 6.77298 23.3561 6.82911C23.4917 6.88525 23.6369 6.91414 23.7836 6.91414C23.9303 6.91414 24.0755 6.88525 24.211 6.82911C24.3466 6.77298 24.4697 6.69071 24.5734 6.58698C24.6771 6.48326 24.7594 6.36013 24.8155 6.22461C24.8717 6.0891 24.9006 5.94385 24.9006 5.79717V2.85403C24.9003 2.55782 24.7826 2.2738 24.5732 2.06431C24.3638 1.85482 24.0798 1.73697 23.7836 1.73662Z" fill="#313131"/>
<path d="M8.21621 7.77857C7.69077 7.778 7.18702 7.56901 6.81547 7.19747C6.44393 6.82593 6.23495 6.32217 6.23438 5.79673V2.85403C6.23437 2.59377 6.28564 2.33606 6.38523 2.09561C6.48483 1.85517 6.63081 1.63669 6.81484 1.45266C6.99887 1.26863 7.21735 1.12265 7.4578 1.02305C7.69824 0.923454 7.95595 0.872192 8.21621 0.872192C8.47647 0.872192 8.73418 0.923454 8.97463 1.02305C9.21507 1.12265 9.43355 1.26863 9.61758 1.45266C9.80161 1.63669 9.94759 1.85517 10.0472 2.09561C10.1468 2.33606 10.198 2.59377 10.198 2.85403V5.79717C10.1974 6.32253 9.98832 6.82618 9.61679 7.19762C9.24526 7.56907 8.74158 7.778 8.21621 7.77857ZM8.21621 1.73662C7.92 1.73697 7.63603 1.85482 7.42662 2.06431C7.21721 2.2738 7.09947 2.55782 7.09924 2.85403V5.79717C7.09924 6.09341 7.21692 6.37751 7.42639 6.58698C7.63587 6.79646 7.91997 6.91414 8.21621 6.91414C8.51245 6.91414 8.79656 6.79646 9.00603 6.58698C9.2155 6.37751 9.33318 6.09341 9.33318 5.79717V2.85403C9.33295 2.55782 9.21521 2.2738 9.0058 2.06431C8.79639 1.85482 8.51242 1.73697 8.21621 1.73662Z" fill="#313131"/>
<path d="M26.486 17.2259H24.3239C24.0945 17.2259 23.8745 17.1348 23.7123 16.9726C23.5501 16.8104 23.459 16.5904 23.459 16.3611V14.6313C23.459 14.402 23.5501 14.182 23.7123 14.0198C23.8745 13.8576 24.0945 13.7665 24.3239 13.7665H26.486C26.7154 13.7665 26.9354 13.8576 27.0976 14.0198C27.2598 14.182 27.3509 14.402 27.3509 14.6313V16.3611C27.3509 16.5904 27.2598 16.8104 27.0976 16.9726C26.9354 17.1348 26.7154 17.2259 26.486 17.2259ZM24.3239 14.6313V16.3611H26.486V14.6313H24.3239Z" fill="#313131"/>
<path d="M20.2155 17.2259H18.0533C17.824 17.2259 17.604 17.1348 17.4418 16.9726C17.2796 16.8104 17.1885 16.5904 17.1885 16.3611V14.6313C17.1885 14.402 17.2796 14.182 17.4418 14.0198C17.604 13.8576 17.824 13.7665 18.0533 13.7665H20.2155C20.4449 13.7665 20.6649 13.8576 20.8271 14.0198C20.9893 14.182 21.0804 14.402 21.0804 14.6313V16.3611C21.0804 16.5904 20.9893 16.8104 20.8271 16.9726C20.6649 17.1348 20.4449 17.2259 20.2155 17.2259ZM18.0533 14.6313V16.3611H20.2155V14.6313H18.0533Z" fill="#313131"/>
<path d="M13.946 17.2259H11.7838C11.5544 17.2259 11.3345 17.1348 11.1723 16.9726C11.0101 16.8104 10.9189 16.5904 10.9189 16.3611V14.6313C10.9189 14.402 11.0101 14.182 11.1723 14.0198C11.3345 13.8576 11.5544 13.7665 11.7838 13.7665H13.946C14.1754 13.7665 14.3953 13.8576 14.5575 14.0198C14.7197 14.182 14.8108 14.402 14.8108 14.6313V16.3611C14.8108 16.5904 14.7197 16.8104 14.5575 16.9726C14.3953 17.1348 14.1754 17.2259 13.946 17.2259ZM11.7838 14.6313V16.3611H13.946V14.6313H11.7838Z" fill="#313131"/>
<path d="M26.486 22.4151H24.3239C24.0945 22.4151 23.8745 22.324 23.7123 22.1618C23.5501 21.9996 23.459 21.7797 23.459 21.5503V19.8206C23.459 19.5912 23.5501 19.3712 23.7123 19.209C23.8745 19.0468 24.0945 18.9557 24.3239 18.9557H26.486C26.7154 18.9557 26.9354 19.0468 27.0976 19.209C27.2598 19.3712 27.3509 19.5912 27.3509 19.8206V21.5503C27.3509 21.7797 27.2598 21.9996 27.0976 22.1618C26.9354 22.324 26.7154 22.4151 26.486 22.4151ZM24.3239 19.8206V21.5503H26.486V19.8206H24.3239Z" fill="#313131"/>
<path d="M20.2155 22.4151H18.0533C17.824 22.4151 17.604 22.324 17.4418 22.1618C17.2796 21.9996 17.1885 21.7797 17.1885 21.5503V19.8206C17.1885 19.5912 17.2796 19.3712 17.4418 19.209C17.604 19.0468 17.824 18.9557 18.0533 18.9557H20.2155C20.4449 18.9557 20.6649 19.0468 20.8271 19.209C20.9893 19.3712 21.0804 19.5912 21.0804 19.8206V21.5503C21.0804 21.7797 20.9893 21.9996 20.8271 22.1618C20.6649 22.324 20.4449 22.4151 20.2155 22.4151ZM18.0533 19.8206V21.5503H20.2155V19.8206H18.0533Z" fill="#313131"/>
<path d="M13.946 22.4151H11.7838C11.5544 22.4151 11.3345 22.324 11.1723 22.1618C11.0101 21.9996 10.9189 21.7797 10.9189 21.5503V19.8206C10.9189 19.5912 11.0101 19.3712 11.1723 19.209C11.3345 19.0468 11.5544 18.9557 11.7838 18.9557H13.946C14.1754 18.9557 14.3953 19.0468 14.5575 19.209C14.7197 19.3712 14.8108 19.5912 14.8108 19.8206V21.5503C14.8108 21.7797 14.7197 21.9996 14.5575 22.1618C14.3953 22.324 14.1754 22.4151 13.946 22.4151ZM11.7838 19.8206V21.5503H13.946V19.8206H11.7838Z" fill="#313131"/>
<path d="M7.67547 22.4151H5.5133C5.28393 22.4151 5.06394 22.324 4.90175 22.1618C4.73956 21.9996 4.64844 21.7797 4.64844 21.5503V19.8206C4.64844 19.5912 4.73956 19.3712 4.90175 19.209C5.06394 19.0468 5.28393 18.9557 5.5133 18.9557H7.67547C7.90485 18.9557 8.12483 19.0468 8.28702 19.209C8.44922 19.3712 8.54034 19.5912 8.54034 19.8206V21.5503C8.54034 21.7797 8.44922 21.9996 8.28702 22.1618C8.12483 22.324 7.90485 22.4151 7.67547 22.4151ZM5.5133 19.8206V21.5503H7.67547V19.8206H5.5133Z" fill="#313131"/>
<path d="M20.2155 27.6043H18.0533C17.824 27.6043 17.604 27.5132 17.4418 27.351C17.2796 27.1888 17.1885 26.9688 17.1885 26.7394V25.0097C17.1885 24.7803 17.2796 24.5603 17.4418 24.3982C17.604 24.236 17.824 24.1448 18.0533 24.1448H20.2155C20.4449 24.1448 20.6649 24.236 20.8271 24.3982C20.9893 24.5603 21.0804 24.7803 21.0804 25.0097V26.7394C21.0804 26.9688 20.9893 27.1888 20.8271 27.351C20.6649 27.5132 20.4449 27.6043 20.2155 27.6043ZM18.0533 25.0097V26.7394H20.2155V25.0097H18.0533Z" fill="#313131"/>
<path d="M13.946 27.6043H11.7838C11.5544 27.6043 11.3345 27.5132 11.1723 27.351C11.0101 27.1888 10.9189 26.9688 10.9189 26.7394V25.0097C10.9189 24.7803 11.0101 24.5603 11.1723 24.3982C11.3345 24.236 11.5544 24.1448 11.7838 24.1448H13.946C14.1754 24.1448 14.3953 24.236 14.5575 24.3982C14.7197 24.5603 14.8108 24.7803 14.8108 25.0097V26.7394C14.8108 26.9688 14.7197 27.1888 14.5575 27.351C14.3953 27.5132 14.1754 27.6043 13.946 27.6043ZM11.7838 25.0097V26.7394H13.946V25.0097H11.7838Z" fill="#313131"/>
<path d="M7.67547 27.6043H5.5133C5.28393 27.6043 5.06394 27.5132 4.90175 27.351C4.73956 27.1888 4.64844 26.9688 4.64844 26.7394V25.0097C4.64844 24.7803 4.73956 24.5603 4.90175 24.3982C5.06394 24.236 5.28393 24.1448 5.5133 24.1448H7.67547C7.90485 24.1448 8.12483 24.236 8.28702 24.3982C8.44922 24.5603 8.54034 24.7803 8.54034 25.0097V26.7394C8.54034 26.9688 8.44922 27.1888 8.28702 27.351C8.12483 27.5132 7.90485 27.6043 7.67547 27.6043ZM5.5133 25.0097V26.7394H7.67547V25.0097H5.5133Z" fill="#313131"/>
</g>
<defs>
<clipPath id="clip0_477_12">
<rect width="32" height="32" fill="white"/>
</clipPath>
</defs>
</svg>

<svg xmlns="http://www.w3.org/2000/svg" width="32" height="32" fill="none"><g fill="#313131" clip-path="url(#a)" opacity=".8"><path d="M29.838 31.135H2.163a1.297 1.297 0 0 1-1.298-1.297v-19.17a.432.432 0 0 1 .433-.432h29.405a.432.432 0 0 1 .433.432v19.17a1.297 1.297 0 0 1-1.298 1.297ZM1.73 11.1v18.738a.432.432 0 0 0 .433.432h27.675a.433.433 0 0 0 .433-.432V11.1H1.73Z"/><path d="M1.298 11.1a.432.432 0 0 1-.433-.432V5.19a1.297 1.297 0 0 1 1.298-1.297h4.505a.432.432 0 1 1 0 .865H2.163a.432.432 0 0 0-.433.432v5.48a.432.432 0 0 1-.432.432ZM30.703 11.1a.432.432 0 0 1-.433-.432V5.19a.432.432 0 0 0-.432-.432h-4.506a.432.432 0 0 1 0-.865h4.506a1.297 1.297 0 0 1 1.297 1.297v5.48a.433.433 0 0 1-.432.432ZM22.236 4.757H9.764a.432.432 0 0 1 0-.865h12.472a.432.432 0 1 1 0 .865Z"/><path d="M1.298 11.1a.432.432 0 0 1-.433-.432V5.19a1.297 1.297 0 0 1 1.298-1.297h4.505a.432.432 0 1 1 0 .865H2.163a.432.432 0 0 0-.433.432v5.48a.432.432 0 0 1-.432.432ZM30.703 11.1a.432.432 0 0 1-.433-.432V5.19a.432.432 0 0 0-.432-.432h-4.506a.432.432 0 0 1 0-.865h4.506a1.297 1.297 0 0 1 1.297 1.297v5.48a.433.433 0 0 1-.432.432ZM22.236 4.757H9.764a.432.432 0 0 1 0-.865h12.472a.432.432 0 1 1 0 .865Z"/><path d="M23.784 7.779a1.984 1.984 0 0 1-1.982-1.982V2.854a1.982 1.982 0 0 1 3.963 0v2.943a1.984 1.984 0 0 1-1.981 1.982Zm0-6.042a1.118 1.118 0 0 0-1.117 1.117v2.943a1.118 1.118 0 0 0 2.234 0V2.854a1.119 1.119 0 0 0-1.117-1.117ZM8.216 7.779a1.984 1.984 0 0 1-1.982-1.982V2.854a1.982 1.982 0 1 1 3.964 0v2.943A1.984 1.984 0 0 1 8.216 7.78Zm0-6.042A1.118 1.118 0 0 0 7.1 2.854v2.943a1.117 1.117 0 1 0 2.234 0V2.854a1.118 1.118 0 0 0-1.117-1.117ZM26.486 17.226h-2.162a.865.865 0 0 1-.865-.865v-1.73a.865.865 0 0 1 .865-.864h2.162a.865.865 0 0 1 .865.864v1.73a.865.865 0 0 1-.865.865Zm-2.162-2.595v1.73h2.162v-1.73h-2.162ZM20.215 17.226h-2.162a.865.865 0 0 1-.864-.865v-1.73a.865.865 0 0 1 .864-.864h2.162a.865.865 0 0 1 .865.864v1.73a.865.865 0 0 1-.864.865Zm-2.162-2.595v1.73h2.162v-1.73h-2.162ZM13.946 17.226h-2.162a.865.865 0 0 1-.865-.865v-1.73a.865.865 0 0 1 .865-.864h2.162a.865.865 0 0 1 .865.864v1.73a.865.865 0 0 1-.865.865Zm-2.162-2.595v1.73h2.162v-1.73h-2.162ZM26.486 22.415h-2.162a.865.865 0 0 1-.865-.865v-1.73a.865.865 0 0 1 .865-.864h2.162a.865.865 0 0 1 .865.865v1.73a.865.865 0 0 1-.865.864Zm-2.162-2.594v1.73h2.162v-1.73h-2.162ZM20.215 22.415h-2.162a.865.865 0 0 1-.864-.865v-1.73a.865.865 0 0 1 .864-.864h2.162a.865.865 0 0 1 .865.865v1.73a.865.865 0 0 1-.864.864Zm-2.162-2.594v1.73h2.162v-1.73h-2.162ZM13.946 22.415h-2.162a.865.865 0 0 1-.865-.865v-1.73a.865.865 0 0 1 .865-.864h2.162a.865.865 0 0 1 .865.865v1.73a.865.865 0 0 1-.865.864Zm-2.162-2.594v1.73h2.162v-1.73h-2.162ZM7.675 22.415H5.513a.865.865 0 0 1-.865-.865v-1.73a.865.865 0 0 1 .865-.864h2.162a.865.865 0 0 1 .865.865v1.73a.865.865 0 0 1-.865.864Zm-2.162-2.594v1.73h2.162v-1.73H5.513ZM20.215 27.604h-2.162a.865.865 0 0 1-.864-.865v-1.73a.865.865 0 0 1 .864-.864h2.162a.865.865 0 0 1 .865.865v1.73a.865.865 0 0 1-.864.864Zm-2.162-2.594v1.73h2.162v-1.73h-2.162ZM13.946 27.604h-2.162a.865.865 0 0 1-.865-.865v-1.73a.865.865 0 0 1 .865-.864h2.162a.865.865 0 0 1 .865.865v1.73a.865.865 0 0 1-.865.864Zm-2.162-2.594v1.73h2.162v-1.73h-2.162ZM7.675 27.604H5.513a.865.865 0 0 1-.865-.865v-1.73a.865.865 0 0 1 .865-.864h2.162a.865.865 0 0 1 .865.865v1.73a.865.865 0 0 1-.865.864ZM5.513 25.01v1.73h2.162v-1.73H5.513Z"/></g><defs><clipPath id="a"><path fill="#fff" d="M0 0h32v32H0z"/></clipPath></defs></svg>
